X:1
T:Title
%%score { ( 1 4 ) | ( 2 3 ) }
L:1/8
M:4/4
K:Bb
V:1 treble nm="Grand Piano"
V:4 treble 
V:2 bass 
V:3 bass 
V:1
 z4 z2[Q:1/4=100] [DF]2 | [Fd]4- [Fd]d_d[F=d] | [DB]4- [DB]BA[DB] | [Ec]4- [Ec]cB[CA] | %4
 [DB]4- [DB]FB[Fd] | [Df]4- [Df]f=ef | d6[K:bass][K:treble] z2 | e6 z2 | B6 z2 | %9
 G>A BG [^FA]2 [Fd]2 | G>A BG [^FA]4 | G>A BA GED_D |[M:9/8] .D3 z [EA]2- [EA] F2 | %13
[M:4/4] [Fd]4- [Fd]d_d[F=d] | [DB]4- [DB]BA[DB] | [Ec]4- [Ec]cB[CA] | [DB]4- [DB]FB[Fd] | %17
 [Df]4- [Df]f=ef | d6[K:bass][K:treble] z2 | e6 z2 |[M:7/8] [DB]-[DB]-[DB]- [DB]- [DB]3 |] %21
V:2
 z4 z2 F,2 | z4 B,4[K:treble][K:bass] | z4 B,4 | F,>G, A,C z EDF, | z4 B,4 | z4 B,4 | B,4 z2 A,B, | %7
 F,2 z2 z[K:treble] GF[K:bass][F,E] | [B,D]>B, G,E, B,,2 D,2 | G,>A, B,G, D,2 D,2 | %10
 G,>A, B,G, D,4 | G,>A, B,A, G,E,D,_D, |[M:9/8] z2[K:treble] F- F[K:bass] C,2- C, F,2 | %13
[M:4/4] z4 B,4[K:treble][K:bass] | z4 B,4 | F,>G, A,C z EDF, | z4 B,4 | z4 B,4 | B,4 z2 A,B, | %19
 F,2 z2 z[K:treble] GF[K:bass]F, |[M:7/8] B,>B,F, D, B,,3 |] %21
V:3
 x8 | B,,>C, D,F, z[K:treble] F=E[K:bass]B, | B,,>C, D,F, z D_DB, | z4 F,4 | B,,>C, D,F, z DDB, | %5
 B,,>C, D,F, z D_D[B,=D] | B,,2 z2 z .B,3 | C4 F,4[K:treble][K:bass] | x8 | x8 | x8 | x8 | %12
[M:9/8] .D,6[K:treble][K:bass] z3 |[M:4/4] B,,>C, D,F, z[K:treble] F=E[K:bass]B, | %14
 B,,>C, D,F, z D_DB, | z4 F,4 | B,,>C, D,F, z DDB, | B,,>C, D,F, z D_D[B,=D] | B,,2 z2 z .B,3 | %19
 C4 F,4[K:treble][K:bass] |[M:7/8] x7 |] %21
V:4
 x8 | x8 | x8 | x8 | x8 | x8 | z z/[K:bass] C,/ D,F, B,[K:treble]d_d=d | z z/ G,/ B,C- Cedc | %8
 z z/ D/ EE D2 D2 | x8 | x8 | x8 |[M:9/8] x9 |[M:4/4] x8 | x8 | x8 | x8 | x8 | %18
 z z/[K:bass] C,/ D,F, B,[K:treble]d_d=d | z z/ G,/ A,C- Ced[Ec] |[M:7/8] x7 |] %21

